static/fa/svgs/solid/face-grin-tongue-wink.svg

<svg xmlns="http://www.w3.org/2000/svg" viewBox="0 0 512 512"><!--! Font Awesome Free 6.1.1 by @fontawesome - https://fontawesome.com License - https://fontawesome.com/license/free (Icons: CC BY 4.0, Fonts: SIL OFL 1.1, Code: MIT License) Copyright 2022 Fonticons, Inc.--><path d="M312 208c0-13.3 10.7-24 24-24s24 10.7 24 24-10.7 24-24 24-24-10.7-24-24zM174.5 498.8C73.07 464.7 0 368.9 0 256 0 114.6 114.6 0 256 0s256 114.6 256 256c0 112.9-73.1 208.7-174.5 242.8C346.7 484 352 466.6 352 448v-46.9c24.3-17.6 43.6-41.6 55.4-69.6 5-11.8-7-22.5-19.3-18.7-39.7 12.1-84.4 19-131.8 19-47.4 0-92.2-6.9-131.8-19-12.3-3.8-24.3 6.9-19.3 18.7 11.7 27.8 29.9 51.6 53.9 69.2V448c0 18.6 6.2 36 15.4 50.8zm43.1-262c7.1-5.3 8.5-15.3 3.2-22.4-30.4-40.5-91.2-40.5-121.6 0-5.3 7.1-3.87 17.1 3.2 22.4 7.1 5.3 17.1 3.9 22.4-3.2 17.6-23.5 52.8-23.5 70.4 0 5.3 7.1 15.3 8.5 22.4 3.2zM336 272c35.3 0 64-28.7 64-64s-28.7-64-64-64-64 28.7-64 64 28.7 64 64 64zm-16 130.6V448c0 35.3-28.7 64-64 64s-64-28.7-64-64v-45.4c0-14.7 11.9-26.6 26.6-26.6h2c11.3 0 21.1 7.9 23.6 18.9 2.8 12.6 19.9 12.6 23.6 0 2.5-11 12.3-18.9 23.6-18.9h2c14.7 0 26.6 11.9 26.6 26.6z"/></svg>

<svg xmlns="http://www.w3.org/2000/svg" viewBox="0 0 512 512"><!--! Font Awesome Free 6.1.1 by @fontawesome - https://fontawesome.com License - https://fontawesome.com/license/free (Icons: CC BY 4.0, Fonts: SIL OFL 1.1, Code: MIT License) Copyright 2022 Fonticons, Inc. --><path d="M312 208C312 194.7 322.7 184 336 184C349.3 184 360 194.7 360 208C360 221.3 349.3 232 336 232C322.7 232 312 221.3 312 208zM174.5 498.8C73.07 464.7 0 368.9 0 256C0 114.6 114.6 0 256 0C397.4 0 512 114.6 512 256C512 368.9 438.9 464.7 337.5 498.8C346.7 484 352 466.6 352 448V401.1C376.3 383.5 395.6 359.5 407.4 331.5C412.4 319.7 400.4 309 388.1 312.8C348.4 324.9 303.7 331.8 256.3 331.8C208.9 331.8 164.1 324.9 124.5 312.8C112.2 309 100.2 319.7 105.2 331.5C116.9 359.3 135.1 383.1 159.1 400.7V448C159.1 466.6 165.3 484 174.5 498.8L174.5 498.8zM217.6 236.8C224.7 231.5 226.1 221.5 220.8 214.4C190.4 173.9 129.6 173.9 99.2 214.4C93.9 221.5 95.33 231.5 102.4 236.8C109.5 242.1 119.5 240.7 124.8 233.6C142.4 210.1 177.6 210.1 195.2 233.6C200.5 240.7 210.5 242.1 217.6 236.8zM336 272C371.3 272 400 243.3 400 208C400 172.7 371.3 144 336 144C300.7 144 272 172.7 272 208C272 243.3 300.7 272 336 272zM320 402.6V448C320 483.3 291.3 512 256 512C220.7 512 192 483.3 192 448V402.6C192 387.9 203.9 376 218.6 376H220.6C231.9 376 241.7 383.9 244.2 394.9C247 407.5 264.1 407.5 267.8 394.9C270.3 383.9 280.1 376 291.4 376H293.4C308.1 376 320 387.9 320 402.6V402.6z"/></svg>
